svg/u1f9bc.svg

<svg viewBox="0 0 128 128" xmlns="http://www.w3.org/2000/svg">
  <g>
    <circle cx="102.34" cy="116.35" r="7.65" fill="#78909C"/>
    <circle cx="102.34" cy="116.35" r="3.27" fill="#AFB8B6"/>
    <path d="M102.34,113.64c1.49,0,2.71,1.21,2.71,2.71c0,1.5-1.21,2.71-2.71,2.71c-1.5,0-2.71-1.21-2.71-2.71 C99.63,114.85,100.85,113.64,102.34,113.64 M102.34,112.52c-2.12,0-3.83,1.72-3.83,3.83c0,2.12,1.72,3.83,3.83,3.83 c2.12,0,3.83-1.72,3.83-3.83C106.18,114.24,104.46,112.52,102.34,112.52z" fill="#37474F"/>
    <path d="M102.34,96.9c-0.85,0-1.54,0.28-1.54,0.62h-0.01v1.44H86.19v6.17h14.61v11.04 c0,0.85,0.7,1.55,1.55,1.55c0.85,0,1.55-0.7,1.54-1.55V97.52C103.88,97.18,103.19,96.9,102.34,96.9z" fill="#616161"/>
    <path d="M43.84,124c-4.22,0-7.65-3.43-7.65-7.65s3.43-7.65,7.65-7.65s7.65,3.43,7.65,7.65 S48.05,124,43.84,124z" fill="#607D8B"/>
    <path d="M43.84,119.63c-1.8,0-3.27-1.47-3.27-3.27s1.47-3.27,3.27-3.27c1.8,0,3.27,1.47,3.27,3.27 S45.64,119.63,43.84,119.63z" fill="#AFB8B6"/>
    <path d="M43.84,113.64c1.49,0,2.71,1.21,2.71,2.71c0,1.5-1.21,2.71-2.71,2.71c-1.5,0-2.71-1.21-2.71-2.71 C41.12,114.85,42.34,113.64,43.84,113.64 M43.84,112.52c-2.12,0-3.83,1.72-3.83,3.83c0,2.12,1.72,3.83,3.83,3.83 c2.12,0,3.83-1.72,3.83-3.83C47.67,114.24,45.95,112.52,43.84,112.52z" fill="#37474F"/>
    <path d="M42.29,98.6l-5.35,5.84c-0.11,0.12-0.27,0.19-0.43,0.19c-0.07,0-0.12-0.01-0.18-0.03l-19.84-6.58 c-0.19-0.06-0.38-0.09-0.58-0.09c-0.83,0-1.55,0.53-1.8,1.31c-0.16,0.48-0.12,1,0.11,1.45c0.24,0.45,0.63,0.78,1.11,0.94 l20.56,6.87c0.39,0.12,2.88,0.79,4.68-0.85c0.06-0.07,0.75-0.82,1.72-1.87v10.38c0,0.85,0.7,1.55,1.55,1.55 c0.85,0,1.55-0.7,1.54-1.55v-13.73L42.29,98.6z" fill="#616161"/>
    <path d="M43.5,105.41c-1.76,0-3.45-1.5-3.45-3.26l0.05-1.28c0.18-1.04,0.96-2.31,1.59-2.92l9.13-8.74 l3.05,16.19L43.5,105.41L43.5,105.41z" fill="#C62828"/>
    <path d="M55.86,108.23c-2.54,0-3.14-1.49-3.52-4.83l-2.41-16.88H91.3l-2.4,16.86 c-0.38,3.35-0.99,4.84-3.52,4.84H55.86V108.23z" fill="#F44336"/>
    <polygon points="49.96,86.81 50.27,88.34 90.94,88.44 91.3,86.51 " fill="#C62828"/>
    <path d="M70.62,92.01c-8.94,0-16.2,6.28-16.2,14c0,1.13,0.17,1.14,0.47,2.19 c0.29,0.06,31.18,0.05,31.47-0.01c0.29-1.05,0.46-1.05,0.46-2.18C86.82,98.29,79.55,92.01,70.62,92.01z" fill="#C62828"/>
    <g>
      <path d="M70.62,124c-7.93,0-14.37-6.45-14.37-14.37s6.45-14.37,14.37-14.37s14.37,6.45,14.37,14.37 S78.54,124,70.62,124z" fill="#78909C"/>
      <path d="M70.62,116.28c-3.83,0-6.95-3.12-6.95-6.95s3.12-6.95,6.95-6.95c3.83,0,6.95,3.12,6.95,6.95 S74.45,116.28,70.62,116.28z" fill="#AFB8B6"/>
      <path d="M70.62,102.92c3.53,0,6.39,2.87,6.39,6.39c0,3.53-2.87,6.39-6.39,6.39c-3.52,0-6.39-2.87-6.39-6.39 S67.1,102.92,70.62,102.92 M70.62,101.8c-4.15,0-7.51,3.36-7.51,7.51s3.36,7.51,7.51,7.51c4.15,0,7.51-3.36,7.51-7.51 S74.77,101.8,70.62,101.8z" fill="#2F3B4B"/>
      <path d="M70.62,106.53c-1.54,0-2.78,1.24-2.78,2.78c0,1.54,1.24,2.78,2.78,2.78c1.54,0,2.78-1.24,2.78-2.78 C73.41,107.78,72.15,106.53,70.62,106.53z" fill="#141111"/>
    </g>
    <polygon points="93.63,28.46 95.01,22.17 98.34,22.92 97.01,29.02 " fill="#757575"/>
    <path d="M98.71,24.25c-0.16,0-0.31-0.01-0.47-0.03l-4.25-0.66c-0.81-0.12-1.51-0.56-1.98-1.21 c-0.48-0.66-0.67-1.46-0.55-2.26l2.12-13.51c0.24-1.49,1.49-2.57,3-2.57c0.16,0,0.31,0.01,0.47,0.03l4.25,0.66 c1.66,0.26,2.79,1.82,2.53,3.48l-2.12,13.51C101.48,23.15,100.19,24.25,98.71,24.25z" fill="#424242"/>
    <path d="M98.96,33.06c0.16-1.91,0.11-3.19-0.89-4.45c-1.15-1.45-2.59-1.83-3.81-1.83 c-2.16,0-4.05,1.58-5.16,4.34c-2.53,6.26-5.46,15.24-7.34,24.24c-1.96-0.08-8.6-0.35-14.11-0.35c-2.91,0-6.95,0.27-6.95,0.27 c-2.67,0.26-4.42,0.64-4.23,3.53c0.13,2.11,0.68,2.7,4.3,2.89l19.71,0.95c-0.24,1.8-0.43,3.58-0.54,5.29 c-0.35,5.45,2.07,8.51,4.95,10.23l-34.86,0.17c-0.9,0.01-1.63,0.74-1.64,1.63l-0.09,5.17c0,0.45,0.16,0.86,0.47,1.18 c0.31,0.31,0.73,0.49,1.17,0.49l40.43,0.16c0.73,0,1.4-0.28,1.91-0.81c0.5-0.53,0.7-1.4,0.8-3.27c0.14-2.5-0.23-3.75-0.23-3.75 c0.26-0.34,0.44-0.75,0.5-1.2C94.82,67.17,98.29,41.24,98.96,33.06z" fill="#424242"/>
    <path d="M93.35,27.58c1.76,1.17,0.96,3.96,0.7,4.8c-1.74,5.52-4.38,10.77-5.67,16.42 c-0.34,1.49-0.7,3.17-2.01,3.95c-0.72,0.43-1.75,0.65-2.55,0.92c-1.24,0.41-1.91,1.03-1.91,1.03s3.13-14.18,7.2-23.57 C91.24,26.2,93.35,27.58,93.35,27.58z" fill="#757575"/>
    <path d="M85.04,78.17c-2.87-0.1-35,0.18-35,0.18c-0.9,0.01-1.72,0.65-1.64,1.63c0,0,1.55,1.69,16.4,1.69 c8.14,0,20.24-0.03,23.2-0.83C91.92,79.77,87.91,78.27,85.04,78.17z" fill="#757575"/>
    <path d="M67.23,82.27c-0.82-1.08-2.79-4.39-2.79-11.36c0-6.97,1.98-10.29,2.8-11.37l5.01,2.19 c-0.76,1.18-2.21,4.08-2.21,9.18c0,5.07,2.33,9.91,4,12.1L67.23,82.27z" fill="#424242"/>
    <path d="M51.79,59.65v-0.96c0-0.94,0.19-2.16,0.76-2.91c0.12-0.16,0.22-0.35,0.3-0.55 c0.35-1.01-0.19-2.1-1.2-2.44c-1.01-0.35-2.1,0.19-2.44,1.2c-0.2,0.61-0.1,1.23,0.25,1.73c0.56,0.81,0.64,1.55,0.65,2.53v1.39 C50.11,59.87,51.79,59.95,51.79,59.65z" fill="#424242"/>
    <path d="M56.94,57.21l-1.95,1.88h-7.76l-7.4-3.83c-0.41-0.21-1.68,0.44-0.59,1.35l8.58,6.09 c0.5,0.36,1.12,0.55,1.74,0.55h2.75c1.73,0,2.63-0.94,3.55-2.42c0.35-0.57,1.01-1.58,1.01-1.58L56.94,57.21z" fill="#424242"/>
    <path d="M82.36,55.38c-0.08,0-8.2-0.37-14.7-0.37c-2.91,0-5.08,0.07-6.42,0.21l-0.53,0.06 c-1.84,0.18-3.23,0.44-3.86,1.52c0.47,0.82,1.51,1.13,3.93,1.26l20.2,0.98c2.97,0,6.66,0.21,6.46-1.46 C87.23,55.9,84.22,55.38,82.36,55.38z" fill="#757575"/>
    <path d="M80.5,62.64c1.18,0.18,2.52,0.19,3.71,0.08s2.4-0.55,3.21-1.43c0.19,1.04-0.28,2.13-1.07,2.84 c-0.78,0.71-1.83,1.08-2.87,1.22c-1.05,0.14-2.24,0.1-3.3,0.02" fill="#212121"/>
    <path d="M51.14,53c0.78,0.21,0.96,0.9,0.64,1.55c-0.39,0.79-1.24,1-1.79,0.83c-0.55-0.17-0.72-1-0.44-1.55 C49.85,53.21,50.56,52.84,51.14,53z" fill="#757575"/>
    <polygon points="47.76,60.39 54.28,60.65 54.99,59.09 47.23,59.09 39.83,55.26 40.1,55.75 " fill="#757575"/>
    <path d="M70.53,66.13c0.39-1.78,0.95-3.04,1.4-3.86l-6.01-0.32c-0.26,0.65-0.52,1.42-0.75,2.34 C66.12,64.23,68.02,64.41,70.53,66.13z" fill="#212121"/>
    <path d="M96.58,4c-1.51,0-2.77,1.08-3,2.57l-2.12,13.51c-0.17,1.77,2.49,1.93,3.62,0.88 c1.69-1.57,2.7-4,3.83-9.97c1.25-6.61-1.86-6.95-1.86-6.95C96.9,4.01,96.74,4,96.58,4z" fill="#757575"/>
    <path d="M59.91,106.16 c0.74-3.37,3.42-6.25,6.73-7.23" opacity="0.8" fill="none" stroke="#94D1E0" stroke-width="2" stroke-linecap="round" stroke-miterlimit="10"/>
  </g>
</svg>

<svg viewBox="0 0 128 128" xmlns="http://www.w3.org/2000/svg">
  <defs/>
  <path d="M109.99,116.35 A7.65 7.65 0 1 1 94.69,116.35 A7.65 7.65 0 1 1 109.99,116.35 Z" fill="#78909C"/>
  <path d="M105.61,116.35 A3.27 3.27 0 1 1 99.07,116.35 A3.27 3.27 0 1 1 105.61,116.35 Z" fill="#AFB8B6"/>
  <path d="M102.34,113.64 C103.83,113.64 105.05,114.85 105.05,116.35 C105.05,117.85 103.84,119.06 102.34,119.06 C100.84,119.06 99.63,117.85 99.63,116.35 C99.63,114.85 100.85,113.64 102.34,113.64 M102.34,112.52 C100.22,112.52 98.51,114.24 98.51,116.35 C98.51,118.47 100.23,120.18 102.34,120.18 C104.46,120.18 106.17,118.46 106.17,116.35 C106.18,114.24 104.46,112.52 102.34,112.52 Z" fill="#37474F"/>
  <path d="M102.34,96.9 C101.49,96.9 100.8,97.18 100.8,97.52 L100.79,97.52 L100.79,98.96 L86.19,98.96 L86.19,105.13 L100.8,105.13 L100.8,116.17 C100.8,117.02 101.5,117.72 102.35,117.72 C103.2,117.72 103.9,117.02 103.89,116.17 L103.89,97.52 C103.88,97.18 103.19,96.9 102.34,96.9 Z" fill="#616161"/>
  <path d="M43.84,124 C39.62,124 36.19,120.57 36.19,116.35 C36.19,112.13 39.62,108.7 43.84,108.7 C48.06,108.7 51.49,112.13 51.49,116.35 C51.49,120.57 48.05,124 43.84,124 Z" fill="#607D8B"/>
  <path d="M43.84,119.63 C42.04,119.63 40.57,118.16 40.57,116.36 C40.57,114.56 42.04,113.09 43.84,113.09 C45.64,113.09 47.11,114.56 47.11,116.36 C47.11,118.16 45.64,119.63 43.84,119.63 Z" fill="#AFB8B6"/>
  <path d="M43.84,113.64 C45.33,113.64 46.55,114.85 46.55,116.35 C46.55,117.85 45.34,119.06 43.84,119.06 C42.34,119.06 41.13,117.85 41.13,116.35 C41.12,114.85 42.34,113.64 43.84,113.64 M43.84,112.52 C41.72,112.52 40.01,114.24 40.01,116.35 C40.01,118.47 41.73,120.18 43.84,120.18 C45.96,120.18 47.67,118.46 47.67,116.35 C47.67,114.24 45.95,112.52 43.84,112.52 Z" fill="#37474F"/>
  <path d="M42.29,98.6 L36.94,104.44 C36.83,104.56 36.67,104.63 36.51,104.63 C36.44,104.63 36.39,104.62 36.33,104.6 L16.49,98.02 C16.3,97.96 16.11,97.93 15.91,97.93 C15.08,97.93 14.36,98.46 14.11,99.24 C13.95,99.72 13.99,100.24 14.22,100.69 C14.46,101.14 14.85,101.47 15.33,101.63 L35.89,108.5 C36.28,108.62 38.77,109.29 40.57,107.65 C40.63,107.58 41.32,106.83 42.29,105.78 L42.29,116.16 C42.29,117.01 42.99,117.71 43.84,117.71 C44.69,117.71 45.39,117.01 45.38,116.16 L45.38,102.43 L42.29,98.6 Z" fill="#616161"/>
  <path d="M43.5,105.41 C41.74,105.41 40.05,103.91 40.05,102.15 L40.1,100.87 C40.28,99.83 41.06,98.56 41.69,97.95 L50.82,89.21 L53.87,105.4 L43.5,105.41 L43.5,105.41 Z" fill="#C62828"/>
  <path d="M55.86,108.23 C53.32,108.23 52.72,106.74 52.34,103.4 L49.93,86.52 L91.3,86.52 L88.9,103.38 C88.52,106.73 87.91,108.22 85.38,108.22 L55.86,108.22 L55.86,108.23 Z" fill="#F44336"/>
  <path d="M49.96,86.81 L50.27,88.34 L90.94,88.44 L91.3,86.51 Z" fill="#C62828"/>
  <path d="M70.62,92.01 C61.68,92.01 54.42,98.29 54.42,106.01 C54.42,107.14 54.59,107.15 54.89,108.2 C55.18,108.26 86.07,108.25 86.36,108.19 C86.65,107.14 86.82,107.14 86.82,106.01 C86.82,98.29 79.55,92.01 70.62,92.01 Z" fill="#C62828"/>
  <path d="M70.62,124 C62.69,124 56.25,117.55 56.25,109.63 C56.25,101.71 62.7,95.26 70.62,95.26 C78.54,95.26 84.99,101.71 84.99,109.63 C84.99,117.55 78.54,124 70.62,124 Z" fill="#78909C"/>
  <path d="M70.62,116.28 C66.79,116.28 63.67,113.16 63.67,109.33 C63.67,105.5 66.79,102.38 70.62,102.38 C74.45,102.38 77.57,105.5 77.57,109.33 C77.57,113.16 74.45,116.28 70.62,116.28 Z" fill="#AFB8B6"/>
  <path d="M70.62,102.92 C74.15,102.92 77.01,105.79 77.01,109.31 C77.01,112.84 74.14,115.7 70.62,115.7 C67.1,115.7 64.23,112.83 64.23,109.31 C64.23,105.79 67.1,102.92 70.62,102.92 M70.62,101.8 C66.47,101.8 63.11,105.16 63.11,109.31 C63.11,113.46 66.47,116.82 70.62,116.82 C74.77,116.82 78.13,113.46 78.13,109.31 C78.13,105.16 74.77,101.8 70.62,101.8 Z" fill="#2F3B4B"/>
  <path d="M70.62,106.53 C69.08,106.53 67.84,107.77 67.84,109.31 C67.84,110.85 69.08,112.09 70.62,112.09 C72.16,112.09 73.4,110.85 73.4,109.31 C73.41,107.78 72.15,106.53 70.62,106.53 Z" fill="#141111"/>
  <path d="M93.63,28.46 L95.01,22.17 L98.34,22.92 L97.01,29.02 Z" fill="#757575"/>
  <path d="M98.71,24.25 C98.55,24.25 98.4,24.24 98.24,24.22 L93.99,23.56 C93.18,23.44 92.48,23 92.01,22.35 C91.53,21.69 91.34,20.89 91.46,20.09 L93.58,6.58 C93.82,5.09 95.07,4.01 96.58,4.01 C96.74,4.01 96.89,4.02 97.05,4.04 L101.3,4.7 C102.96,4.96 104.09,6.52 103.83,8.18 L101.71,21.69 C101.48,23.15 100.19,24.25 98.71,24.25 Z" fill="#424242"/>
  <path d="M98.96,33.06 C99.12,31.15 99.07,29.87 98.07,28.61 C96.92,27.16 95.48,26.78 94.26,26.78 C92.1,26.78 90.21,28.36 89.1,31.12 C86.57,37.38 83.64,46.36 81.76,55.36 C79.8,55.28 73.16,55.01 67.65,55.01 C64.74,55.01 60.7,55.28 60.7,55.28 C58.03,55.54 56.28,55.92 56.47,58.81 C56.6,60.92 57.15,61.51 60.77,61.7 L80.48,62.65 C80.24,64.45 80.05,66.23 79.94,67.94 C79.59,73.39 82.01,76.45 84.89,78.17 L50.03,78.34 C49.13,78.35 48.4,79.08 48.39,79.97 L48.3,85.14 C48.3,85.59 48.46,86 48.77,86.32 C49.08,86.63 49.5,86.81 49.94,86.81 L90.37,86.97 C91.1,86.97 91.77,86.69 92.28,86.16 C92.78,85.63 92.98,84.76 93.08,82.89 C93.22,80.39 92.85,79.14 92.85,79.14 C93.11,78.8 93.29,78.39 93.35,77.94 C94.82,67.17 98.29,41.24 98.96,33.06 Z" fill="#424242"/>
  <path d="M93.35,27.58 C95.11,28.75 94.31,31.54 94.05,32.38 C92.31,37.9 89.67,43.15 88.38,48.8 C88.04,50.29 87.68,51.97 86.37,52.75 C85.65,53.18 84.62,53.4 83.82,53.67 C82.58,54.08 81.91,54.7 81.91,54.7 C81.91,54.7 85.04,40.52 89.11,31.13 C91.24,26.2 93.35,27.58 93.35,27.58 Z" fill="#757575"/>
  <path d="M85.04,78.17 C82.17,78.07 50.04,78.35 50.04,78.35 C49.14,78.36 48.32,79 48.4,79.98 C48.4,79.98 49.95,81.67 64.8,81.67 C72.94,81.67 85.04,81.64 88,80.84 C91.92,79.77 87.91,78.27 85.04,78.17 Z" fill="#757575"/>
  <path d="M67.23,82.27 C66.41,81.19 64.44,77.88 64.44,70.91 C64.44,63.94 66.42,60.62 67.24,59.54 L72.25,61.73 C71.49,62.91 70.04,65.81 70.04,70.91 C70.04,75.98 72.37,80.82 74.04,83.01 L67.23,82.27 Z" fill="#424242"/>
  <path d="M51.79,59.65 L51.79,58.69 C51.79,57.75 51.98,56.53 52.55,55.78 C52.67,55.62 52.77,55.43 52.85,55.23 C53.2,54.22 52.66,53.13 51.65,52.79 C50.64,52.44 49.55,52.98 49.21,53.99 C49.01,54.6 49.11,55.22 49.46,55.72 C50.02,56.53 50.1,57.27 50.11,58.25 L50.11,59.64 C50.11,59.87 51.79,59.95 51.79,59.65 Z" fill="#424242"/>
  <path d="M56.94,57.21 L54.99,59.09 L47.23,59.09 L39.83,55.26 C39.42,55.05 38.15,55.7 39.24,56.61 L47.82,62.7 C48.32,63.06 48.94,63.25 49.56,63.25 L52.31,63.25 C54.04,63.25 54.94,62.31 55.86,60.83 C56.21,60.26 56.87,59.25 56.87,59.25 L56.94,57.21 Z" fill="#424242"/>
  <path d="M82.36,55.38 C82.28,55.38 74.16,55.01 67.66,55.01 C64.75,55.01 62.58,55.08 61.24,55.22 L60.71,55.28 C58.87,55.46 57.48,55.72 56.85,56.8 C57.32,57.62 58.36,57.93 60.78,58.06 L80.98,59.04 C83.95,59.04 87.64,59.25 87.44,57.58 C87.23,55.9 84.22,55.38 82.36,55.38 Z" fill="#757575"/>
  <path d="M80.5,62.64 C81.68,62.82 83.02,62.83 84.21,62.72 C85.4,62.61 86.61,62.17 87.42,61.29 C87.61,62.33 87.14,63.42 86.35,64.13 C85.57,64.84 84.52,65.21 83.48,65.35 C82.43,65.49 81.24,65.45 80.18,65.37" fill="#212121"/>
  <path d="M51.14,53 C51.92,53.21 52.1,53.9 51.78,54.55 C51.39,55.34 50.54,55.55 49.99,55.38 C49.44,55.21 49.27,54.38 49.55,53.83 C49.85,53.21 50.56,52.84 51.14,53 Z" fill="#757575"/>
  <path d="M47.76,60.39 L54.28,60.65 L54.99,59.09 L47.23,59.09 L39.83,55.26 L40.1,55.75 Z" fill="#757575"/>
  <path d="M70.53,66.13 C70.92,64.35 71.48,63.09 71.93,62.27 L65.92,61.95 C65.66,62.6 65.4,63.37 65.17,64.29 C66.12,64.23 68.02,64.41 70.53,66.13 Z" fill="#212121"/>
  <path d="M96.58,4 C95.07,4 93.81,5.08 93.58,6.57 L91.46,20.08 C91.29,21.85 93.95,22.01 95.08,20.96 C96.77,19.39 97.78,16.96 98.91,10.99 C100.16,4.38 97.05,4.04 97.05,4.04 C96.9,4.01 96.74,4 96.58,4 Z" fill="#757575"/>
  <path d="M58.933,105.946 Q60.29,99.767 66.356,97.971 Q67.315,97.687 67.599,98.646 Q67.883,99.605 66.924,99.889 Q61.99,101.35 60.887,106.374 Q60.779,106.863 60.482,107.053 Q60.184,107.244 59.696,107.137 Q58.719,106.922 58.933,105.946 Z" fill="#94D1E0" opacity="0.8"/>
</svg>
